X:1
T:Beware O' Bonie Ann
M:4/4
L:1/8
K:F
 z4 z2A-B|c-AG-F f3e/2-d/2|c-AG-F A2B-d|c-AG-F B2 A3/2- B/2| A2 G2 z2A-B|\
c-AG-F f3e/2-d/2|c-AG-F B3 d|c-fG-B A2 G2| F6A-B|c-Ad-f c2E-G| A2f-d c3 c|\
d-fe-gf-ed-^c| d6 d-e/2-f/2|c-AG-Fd-BA-G|e-cB-A f2e-d|c-fG-B A2 G2|\
 F6 z2|
